X: 525
T: Xiu qilin
L: 1/8
M: 2/4
K: G
B2e d [I:setbarnb 1]| 
B B A G | 
B2e d | 
B B A E | 
G4 | 
d> g e d | 
B> d A E | 
G4 | 
G G E D | 
d d B A/ A/ | 
G A d B | 
A4 | 
d d B d | 
F ED2 | 
d A/ B/ A/ G/ F/ E/ | 
D4 | 
B> g e d | 
B B B B | 
d d B d | 
F ED2 | 
d A/ B/ A/ G/ F/ E/ | 
D4 |]

@@@ Tune index: 9399
